src/assets/svgs/flats/commercialCentre.svg

<svg viewBox="0 0 584.16 293.41">
  <g class="wallLowFront">
    <path d="M257.64,138.45c-4.03,0-8.06,0-12.09,0,.03,51.49-.27,102.98-.88,154.46h12.27c.5-51.48,.73-102.97,.71-154.46Z"/>
    <path d="M402.95,68.74c-9.48-.03-18.96-.06-28.44-.08-.77,74.76-.44,149.53,.98,224.25h28.73c-1.83-74.68-2.26-149.43-1.27-224.17Z"/>
    <path d="M155.69,33.72c-12.2,.07-24.41,.14-36.61,.23,2.49,86.31,2.14,172.74-1.03,258.97h36.82c2.54-86.34,2.82-172.8,.82-259.19Z"/>
  </g>
  <g class="wallLowSide">
    <path d="M234.62,138.45c.04,51.49-.3,102.98-1.02,154.46h11.07c.62-51.48,.91-102.97,.88-154.46-3.64,0-7.29,0-10.93,0Z"/>
    <path d="M303.6,173.93c.04,39.66,.17,79.32,.37,118.97h15.56c-.32-39.66-.52-79.32-.58-118.98-5.12,0-10.23,0-15.35,0Z"/>
    <path d="M421.05,68.81c-6.03-.02-12.07-.05-18.1-.07-.99,74.74-.56,149.49,1.27,224.17h18.26c-2.1-74.66-2.58-149.4-1.43-224.1Z"/>
    <path d="M119.08,33.94c-38.94,.27-77.87,.62-116.81,1.05C6.33,120.94,5.73,207.19,.53,292.91H118.06c3.17-86.23,3.51-172.66,1.03-258.97Z"/>
  </g>
  <g class="wallHighFront">
    <path d="M458.67,15.77c-12.17-.09-24.35-.18-36.52-.25-2.38,92.43-2.27,184.98,.33,277.38h36.62c-3.26-92.3-3.41-184.8-.43-277.13Z"/>
    <path d="M361.75,119.15c-5.9,0-11.81,0-17.71-.01-.14,57.93,.17,115.86,.93,173.77h17.96c-.96-57.9-1.35-115.83-1.18-173.76Z"/>
    <path d="M234.53,101.54c-6.5,0-13,.02-19.5,.02,.35,63.79-.05,127.58-1.19,191.34h19.75c.9-63.78,1.21-127.57,.94-191.37Z"/>
  </g>
  <g class="wallHighSide">
    <path d="M582.75,17.05c-41.36-.53-82.72-.95-124.08-1.27-2.98,92.33-2.84,184.84,.43,277.13h124.46c-5.56-91.72-5.84-184.03-.8-275.86Z"/>
    <path d="M374.16,119.17c-4.14,0-8.28-.01-12.42-.01-.18,57.93,.22,115.85,1.18,173.76h12.57c-1.1-57.9-1.54-115.82-1.33-173.74Z"/>
    <path d="M215.03,101.56c-4.24,0-8.48,.01-12.73,.02,.41,63.78-.03,127.57-1.34,191.32h12.87c1.14-63.76,1.54-127.55,1.19-191.34Z"/>
    <path d="M303.69,219.45h-29.95c-.08,24.49-.19,48.97-.35,73.46h30.58c-.13-24.49-.21-48.97-.28-73.46Z"/>
  </g>
  <g class="wallMediumFront">
    <path d="M332.2,155.73c-4.42,0-8.85,0-13.27,0,.03,45.73,.23,91.45,.6,137.18h13.47c-.49-45.72-.76-91.45-.79-137.18Z"/>
    <path d="M201.81,51.66c-9.3,.03-18.6,.06-27.91,.1,1.37,80.39,1.01,160.81-1.07,241.15h28.13c1.64-80.39,1.93-160.83,.84-241.25Z"/>
  </g>
  <g class="wallMediumSide">
    <path d="M332.2,155.73c.04,45.73,.3,91.46,.79,137.18h11.97c-.6-45.72-.91-91.45-.95-137.18-3.94,0-7.88,0-11.81,0Z"/>
    <path d="M257.55,198.92c-.11,31.33-.31,62.66-.62,93.99h16.46c.2-31.32,.34-62.65,.42-93.97-5.42,0-10.84-.01-16.26-.02Z"/>
    <path d="M173.9,51.76c-5.94,.02-11.88,.05-17.83,.08,1.56,80.36,1.16,160.77-1.2,241.07h17.96c2.08-80.34,2.44-160.76,1.07-241.15Z"/>
  </g>
  <g class="roofFront">
    <path d="M356.18,103.24c-5.85,0-11.71-.01-17.56-.02-.02,5.3-.04,10.61-.05,15.91,5.85,0,11.7,0,17.54,.01,.02-5.3,.04-10.6,.06-15.91Z"/>
    <path d="M240.2,78.99c-12.69,.02-25.38,.05-38.07,.07,.07,7.5,.13,15.01,.18,22.51,12.67-.02,25.34-.04,38.01-.05,4.84-.95,4.77-22.1-.12-22.54Z"/>
    <path d="M421.03,68.8c-16.46-.06-32.92-.11-49.38-.15-6.96-.16-6.78-19.64,.22-19.39,16.5,.05,33,.11,49.5,.19-.12,6.45-.24,12.9-.34,19.35Z"/>
    <path d="M420.56,189.09c-15.43,.03-30.85,.05-46.28,.07-3.31-.04-3.56-8.7-.04-8.55,15.42-.02,30.84-.04,46.26-.06,.02,3.41,.03,5.12,.06,8.54Z"/>
    <path d="M156.08,51.84c-.11-5.22-.22-10.44-.34-15.66,15.18-.08,30.35-.15,45.53-.21,2.55,1.29,7.11,13.36,2.91,15.68-16.03,.05-32.07,.11-48.1,.19Z"/>
    <path d="M156.87,189.5c.04-5.22,.08-10.44,.11-15.66,15.05,.02,30.1,.03,45.16,.05,2.61,1.42,6.64,12.95,2.59,15.69-15.95-.02-31.9-.05-47.85-.08Z"/>
    <path d="M452.25,.77c-12.21-.1-24.42-.19-36.63-.27-.14,4.99-.27,9.99-.4,14.98,12.17,.07,24.35,.15,36.52,.24,.16-4.99,.33-9.97,.5-14.95Z"/>
    <path d="M449.64,144.01c-12.03,0-24.05,0-36.08,0,0,4.62,0,6.93,0,11.55,12.03,0,24.05,0,36.08-.01,0-4.61,0-6.92,0-11.53Z"/>
    <path d="M121.75,9.01c12.15-.1,24.31-.19,36.46-.27,.23,8.32,.45,16.63,.65,24.95-12.1,.07-24.2,.14-36.3,.22-.25-8.3-.52-16.61-.8-24.9Z"/>
    <path d="M124.21,155.05c11.99,0,23.98,0,35.98,.01,0,4.99-.01,7.49-.03,12.48-11.99-.01-23.99-.02-35.98-.04,.02-4.98,.03-7.47,.04-12.45Z"/>
  </g>
  <g class="roofSide">
    <path d="M303.72,227.65c0-2.73-.02-5.46-.03-8.2h-29.95c0,2.73-.02,5.46-.03,8.2h30.01Z"/>
    <path d="M318.94,168.08c-5.86,0-11.73,0-17.59,0,0,2.34,0,3.51,0,5.85,5.86,0,11.73,0,17.59,0,0-1.95,0-3.9,0-5.85Z"/>
    <path d="M275.53,192.06c-5.99,0-11.97,0-17.96-.01,0,2.29-.01,4.58-.02,6.87,5.99,0,11.98,.01,17.97,.01,1.66,0,1.67-6.88,.01-6.88Z"/>
    <path d="M344.01,147.59c-9.77,0-19.53,0-29.3,0-2.34,0-2.34,8.14,0,7.98,9.77,0,19.54,0,29.31,0,0-2.66,0-5.32,0-7.97Z"/>
    <path d="M260.24,129.43c-8.54,0-17.09,0-25.63,.01,0,3,0,6.01,0,9.01,8.54,0,17.09,0,25.63,0,1.17-3.01,1.17-6.01,0-9.01Z"/>
    <path d="M374.24,103.27c-6.02,0-12.04-.02-18.06-.03-.02,5.3-.05,10.6-.06,15.91,6.02,0,12.03,.01,18.05,.02,.02-5.3,.04-10.6,.07-15.9Z"/>
    <path d="M221.19,79.03c-6.36,.01-12.71,.03-19.07,.05,.07,7.5,.13,15.01,.18,22.51,6.35-.01,12.69-.02,19.04-.03,4.85-.95,4.73-22.09-.15-22.53Z"/>
    <path d="M421.02,69.01c-7.25-.1-14.5-.19-21.75-.29-6.98-.16-6.7-19.62,.29-19.37,7.27,.1,14.53,.2,21.8,.3-.12,6.45-.24,12.9-.34,19.35Z"/>
    <path d="M420.57,189.18c-6.07-.02-12.14-.04-18.21-.06-3.15-.28-3.37-8.31-.05-8.54,6.07,.02,12.13,.05,18.2,.07,.02,3.41,.03,5.12,.06,8.54Z"/>
    <path d="M156.08,51.84c-.11-5.22-.22-10.44-.34-15.66,5.88-.03,11.77-.06,17.65-.09,2.53,1.27,7.18,13.32,2.98,15.66-6.76,.03-13.52,.06-20.29,.09Z"/>
    <path d="M156.87,189.5c.04-5.22,.08-10.44,.11-15.66,5.84,0,11.67,.01,17.51,.02,2.62,1.43,6.62,12.95,2.57,15.68-6.73-.01-13.45-.02-20.18-.04Z"/>
    <path d="M582.75,17.05c.28-4.94,.58-9.87,.88-14.8-43.79-.62-87.59-1.11-131.38-1.47-.17,4.98-.34,9.97-.5,14.95,43.67,.32,87.34,.77,131,1.32Z"/>
    <path d="M579.08,155.47c-.01-4.56-.02-6.85,0-11.41-43.14-.02-86.28-.03-129.42-.04,0,4.61,0,6.92,0,11.53,43.14-.02,86.28-.04,129.43-.07Z"/>
    <path d="M2.27,34.99c-.41-8.23-.85-16.45-1.33-24.67,40.27-.54,80.54-.98,120.8-1.31,.29,8.3,.56,16.6,.8,24.9-40.09,.27-80.19,.63-120.28,1.07Z"/>
    <path d="M4.94,167.33c.04-4.93,.05-7.4,.07-12.34,39.73,.03,79.47,.05,119.2,.06,0,4.98-.02,7.47-.04,12.45-39.74-.05-79.48-.11-119.23-.18Z"/>
  </g>
  <g class="doorDarkFront">
    <path d="M451.97,189.45c-4.45,.01-8.89,.02-13.34,.03,.34,34.51,1.07,68.98,2.16,103.43h13.52c-1.19-34.45-1.97-68.94-2.34-103.46Z"/>
    <path d="M190,214.53c-3.31,0-6.62-.02-9.93-.03-.32,26.15-.8,52.28-1.45,78.4h10.04c.6-26.12,1.04-52.24,1.34-78.38Z"/>
  </g>
  <path class="doorMediumFront" d="M147.71,189.49c-5.86-.01-11.73-.03-17.59-.04-.38,34.52-1.17,69.01-2.37,103.46h17.83c1.08-34.45,1.79-68.92,2.13-103.42Z"/>
  <path class="doorLightFront" d="M394.28,214.53c-4.09,.01-8.17,.02-12.26,.03,.26,26.12,.66,52.24,1.2,78.35h12.4c-.6-26.12-1.05-52.24-1.34-78.38Z"/>
  <g class="glassMedium">
    <path d="M152.99,67.91c.37,22.64,.6,45.29,.67,67.94-9.82,0-19.64,.01-29.46,.02-.09-22.62-.35-45.23-.8-67.83,9.86-.05,19.73-.09,29.59-.13Z"/>
    <path d="M178.84,85.77c2.59,0,5.17-.01,7.76-.02,.23,23.11,.33,46.21,.32,69.32-2.58,0-5.16,0-7.74,0,.02-23.1-.1-46.2-.34-69.3Z"/>
    <path d="M190.29,85.74c2.59,0,5.17-.01,7.76-.02,.21,23.12,.3,46.23,.29,69.35-2.58,0-5.16,0-7.74,0,.01-23.11-.09-46.22-.31-69.33Z"/>
    <path d="M398.39,153.1c-6.78,0-13.57,0-20.35,0,0-16.61,.04-33.22,.14-49.83,6.79,.01,13.59,.02,20.38,.03-.12,16.6-.17,33.19-.17,49.79Z"/>
    <path d="M437.93,51.56c-4.4-.02-8.8-.04-13.19-.06-.43,22.57-.72,45.14-.87,67.72,4.37,0,8.74,.01,13.12,.02,.16-22.57,.47-45.12,.94-67.67Z"/>
    <path d="M454.09,51.65c-4.4-.02-8.8-.05-13.19-.07-.48,22.55-.8,45.1-.96,67.66,4.37,0,8.74,.01,13.12,.02,.18-22.55,.52-45.08,1.04-67.62Z"/>
  </g>
</svg>

<svg viewBox="0 0 584.16 293.41">
  <g class="wallLowFront">
    <path d="M403,68.74l-28.44-.08q-1.14,112.14,1,224.25h28.73Q401.48,180.89,403,68.74Z"/>
    <path d="M234.53,101.54l-19.5,0q.53,95.7-1.19,191.35h19.75Q234.94,197.24,234.53,101.54Z"/>
  </g>
  <g class="wallLowSide">
    <path d="M303.6,173.93q.06,59.49.37,119h15.56q-.48-59.49-.58-119Z"/>
    <path d="M421.05,68.81,403,68.74q-1.49,112.11,1.27,224.17h18.26Q419.33,180.92,421.05,68.81Z"/>
    <path d="M215,101.56l-12.72,0q.62,95.67-1.34,191.32h12.87Q215.55,197.27,215,101.56Z"/>
  </g>
  <g class="wallHighFront">
    <path d="M458.67,15.77l-36.52-.25q-3.57,138.66.33,277.39H459.1Q454.19,154.46,458.67,15.77Z"/>
    <path d="M361.75,119.15H344q-.21,86.89.93,173.77h17.95Q361.5,206.06,361.75,119.15Z"/>
    <path d="M257.64,138.45H245.55q0,77.24-.89,154.46h12.27Q257.68,215.69,257.64,138.45Z"/>
    <path d="M201.81,51.66l-27.91.1q2.07,120.59-1.07,241.15H201Q203.43,172.33,201.81,51.66Z"/>
  </g>
  <g class="wallHighSide">
    <path d="M582.75,17.05q-62-.8-124.08-1.28-4.47,138.51.43,277.14H583.55A2395,2395,0,0,1,582.75,17.05Z"/>
    <path d="M374.16,119.17l-12.41,0q-.27,86.9,1.17,173.76h12.57Q373.84,206.06,374.16,119.17Z"/>
    <path d="M234.62,138.45q.06,77.24-1,154.46h11.07q.93-77.22.89-154.46Z"/>
    <path d="M173.9,51.76l-17.82.08q2.34,120.54-1.21,241.07h18Q176,172.4,173.9,51.76Z"/>
  </g>
  <g class="wallMediumFront">
    <path d="M332.2,155.73H318.93q0,68.6.6,137.18H333Q332.25,224.33,332.2,155.73Z"/>
    <path d="M155.69,33.72q-18.3.09-36.61.22,3.73,129.47-1,259h36.81Q158.7,163.4,155.69,33.72Z"/>
  </g>
  <g class="wallMediumSide">
    <path d="M332.2,155.73q.06,68.6.8,137.18h12q-.9-68.58-1-137.18Z"/>
    <path d="M257.55,198.92q-.17,47-.62,94h16.46q.3-47,.42-94Z"/>
    <path d="M119.08,33.94Q60.69,34.35,2.27,35A2396.12,2396.12,0,0,1,.53,292.91H118.06Q122.8,163.57,119.08,33.94Z"/>
  </g>
  <g class="roofFront">
    <path d="M356.18,103.24H338.62q0,8-.05,15.91h17.54Q356.14,111.2,356.18,103.24Z"/>
    <path d="M240.2,79l-38.07.08q.1,11.25.18,22.51l38,0C245.16,100.58,245.09,79.44,240.2,79Z"/>
    <path d="M421,68.8q-24.69-.09-49.39-.15c-7-.16-6.78-19.64.23-19.39q24.75.08,49.5.19Q421.18,59.13,421,68.8Z"/>
    <path d="M420.56,189.09l-46.27.07c-3.31,0-3.56-8.69,0-8.55q23.13,0,46.25-.06C420.52,184,420.54,185.68,420.56,189.09Z"/>
    <path d="M156.08,51.84q-.17-7.83-.34-15.66,22.77-.12,45.53-.21c2.55,1.28,7.11,13.35,2.92,15.68Q180.13,51.73,156.08,51.84Z"/>
    <path d="M156.87,189.5q.06-7.83.11-15.66l45.16,0c2.61,1.43,6.63,13,2.58,15.69Q180.8,189.55,156.87,189.5Z"/>
    <path d="M452.25.77Q433.94.62,415.62.5l-.39,15,36.52.24Q452,8.25,452.25.77Z"/>
    <path d="M449.64,144H413.56c0,4.61,0,6.92,0,11.54h36.08C449.64,150.93,449.64,148.62,449.64,144Z"/>
    <path d="M121.75,9l36.46-.26q.34,12.46.65,25-18.15.09-36.31.22Q122.19,21.46,121.75,9Z"/>
    <path d="M124.21,155.05l36,0c0,5,0,7.48,0,12.47l-36,0C124.19,162.53,124.2,160,124.21,155.05Z"/>
  </g>
  <g class="roofSide">
    <path d="M318.94,168.08H301.35v5.86H319C318.94,172,318.94,170,318.94,168.08Z"/>
    <path d="M275.53,192.06h-18c0,2.29,0,4.58,0,6.87l18,0C277.17,198.94,277.19,192.06,275.53,192.06Z"/>
    <path d="M344,147.59h-29.3c-2.34,0-2.34,8.14,0,8H344Z"/>
    <path d="M260.24,129.43H234.61q0,4.51,0,9h25.63A12,12,0,0,0,260.24,129.43Z"/>
    <path d="M374.24,103.27l-18.06,0q0,8-.07,15.91l18.05,0Q374.19,111.22,374.24,103.27Z"/>
    <path d="M221.19,79l-19.06,0q.1,11.27.18,22.52,9.51,0,19,0C226.19,100.61,226.07,79.47,221.19,79Z"/>
    <path d="M421,69l-21.75-.28c-7-.16-6.7-19.63.29-19.37l21.8.3Q421.18,59.34,421,69Z"/>
    <path d="M420.57,189.18l-18.21-.06c-3.15-.27-3.37-8.3-.06-8.54l18.2.07C420.53,184.06,420.54,185.77,420.57,189.18Z"/>
    <path d="M156.08,51.84q-.17-7.83-.34-15.66l17.65-.09c2.53,1.27,7.18,13.32,3,15.66Z"/>
    <path d="M156.87,189.5q.06-7.83.11-15.66l17.51,0c2.61,1.43,6.61,12.95,2.56,15.68Z"/>
    <path d="M582.75,17.05q.43-7.41.88-14.81Q517.95,1.31,452.25.77q-.25,7.47-.5,15Q517.26,16.22,582.75,17.05Z"/>
    <path d="M579.08,155.47c0-4.57,0-6.85,0-11.41L449.64,144c0,4.61,0,6.92,0,11.53Z"/>
    <path d="M2.27,35Q1.66,22.65,1,10.32,61.34,9.51,121.75,9q.44,12.45.8,24.91Q62.41,34.32,2.27,35Z"/>
    <path d="M4.94,167.33C5,162.39,5,159.92,5,155q59.6,0,119.2.06c0,5,0,7.48,0,12.46Z"/>
  </g>
  <g class="doorDarkFront">
    <path d="M452,189.45l-13.34,0q.51,51.77,2.16,103.43h13.52Q452.53,241.22,452,189.45Z"/>
    <path d="M190,214.53l-9.93,0q-.48,39.21-1.45,78.4h10Q189.56,253.73,190,214.53Z"/>
  </g>
  <path class="doorMediumFront" d="M147.71,189.49l-17.6,0q-.56,51.78-2.36,103.46h17.83Q147.2,241.23,147.71,189.49Z"/>
  <path class="doorLightFront" d="M394.28,214.53l-12.26,0q.39,39.18,1.2,78.35h12.4Q394.72,253.73,394.28,214.53Z"/>
  <g class="glassMedium">
    <path d="M153,67.91q.56,34,.67,67.94l-29.46,0q-.14-33.93-.8-67.83Z"/>
    <path d="M178.84,85.77l7.76,0q.33,34.66.32,69.33h-7.74Q179.2,120.42,178.84,85.77Z"/>
    <path d="M190.29,85.74h7.76q.31,34.67.29,69.35H190.6Q190.63,120.4,190.29,85.74Z"/>
    <path d="M398.39,153.1H378q0-24.91.14-49.83l20.38,0Q398.39,128.2,398.39,153.1Z"/>
    <path d="M437.93,51.56l-13.2-.06q-.64,33.85-.86,67.72l13.11,0Q437.23,85.39,437.93,51.56Z"/>
    <path d="M454.09,51.65l-13.19-.07q-.72,33.83-1,67.66l13.11,0Q453.32,85.45,454.09,51.65Z"/>
  </g>
</svg>
